X: 360
T: 361. Du Lebensfurst, Herr Jesu Christ
N: Derived from chor361.krn
C: Johann Sebastian Bach
%%abc-version 2.0
%%abcx-abcm2ps-target-version 5.9.1 (29 Sep 2008)
%%abc-creator hum2abc beta
%%abcx-conversion-date 2019/03/11 17:28:19
%%abc-edited-by Craig Stuart Sapp
%%humdrum-veritas 1948445648
%%humdrum-veritas-data 2800840303
%%
%%barnumbers 0
L: 1/4
M: C
%%staves [1 2 3 4]
V: 1 clef=treble
V: 2 clef=treble
V: 3 clef=treble-8
V: 4 clef=bass
K: G
[V:1] G [I:setbarnb 1]| 
[V:2] D | 
[V:3] B | 
[V:4] G,/F,/ | 
[V:1] GAB/^c/d | 
[V:2] EFD/E/F | 
[V:3] B/c/- c/d/ B/A/A | 
[V:4] E,D,G,F,/G,/ | 
[V:1] d^c!fermata!dB | 
[V:2] E/F/G!fermata!FF | 
[V:3] AA!fermata!AB/A/ | 
[V:4] A,A,,!fermata!D,^D, | 
[V:1] =cBAB | 
[V:2] ED/E/FG | 
[V:3] G/A/ B/c/=dd | 
[V:4] E,/F,/ G,/C,/ C/B,/ A,/G,/ | 
[V:1] A2!fermata!G :|]  
[V:2] GF!fermata!D :|]  
[V:3] d3/c/!fermata!B :|]  
[V:4] DD,!fermata!G, :|]  
[V:1] A [I:setbarnb 5]| 
[V:2] F/G/ | 
[V:3] d/e/ | 
[V:4] D, | 
[V:1] ABcc | 
[V:2] A3/^G/ A/G/A | 
[V:3] f/e/def | 
[V:4] D/C/B,A,^D, | 
[V:1] B/A/B!fermata!AB | 
[V:2] A^G!fermata!EE/^D/ | 
[V:3] Be/d/!fermata!c=G/A/ | 
[V:4] E,E,,!fermata!A,,E,/F,/ | 
[V:1] BBc/d/e | 
[V:2] EEE/F/ =G/F/ | 
[V:3] B/c/ =d/e/c^c | 
[V:4] G,^G,A,^A, | 
[V:1] e^d!fermata!ef | 
[V:2] F/G/=A!fermata!GA | 
[V:3] BB!fermata!B=d | 
[V:4] B,B,,!fermata!E,=D/=C/ | 
[V:1] gBcB | 
[V:2] G/A/BB/A/ A/G/ | 
[V:3] dgG/A/B | 
[V:4] B,/A,/ G,/F,/ E,/F,/ G,/E,/ | 
[V:1] A2!fermata!Ad | 
[V:2] G2!fermata!FG/F/ | 
[V:3] e/d/e/^c/!fermata!dd | 
[V:4] ^C,/B,,/C,/A,,/!fermata!D,B,, | 
[V:1] edcB/c/ | 
[V:2] EFG/A/D | 
[V:3] d/=c/ c/B/ B/A/G | 
[V:4] =C,D,E,/F,/G, | 
[V:1] A2!fermata!G |]  
[V:2] ED!fermata!D |]  
[V:3] G/F//E//F!fermata!B |]  
[V:4] C,D,!fermata!G,, |]  



